X: 24172
T: Lord Dalhousie
R: reel
M: 4/4
K: Dmajor
|A|{c}d2(fd) (3AAA (fd)|(eg)~fe {c}dBBc|d2(fd) eg~fe|{c}dBAF (3DDD D:|
B|ADFA ~B2(B{c}d)|ABFA BEEB|ADFA Bc{c}dA|BdAF (3DDD (DB)|
ADFA ~B2(Bd)|ABFA BEEB|AFGA Bc{c}de|fdef (3ddd [dF]||

